X:1
T:Mi votu e mi rivotu
T:Mi vôtu e mi rivôtu
T:Anonimo
T:scrittura in musica di “Mi votu e mi rivotu” di Francesco Paolo Frontini nel libro “Eco di Sicilia” 1882
T:Ci penzi quannu nsèmula abballammu e a siritina cchi sonu tinemmu? Ntra l’occhi tutti dui ni taliammu, n’arrussiau la facci e poi ridemmu; abballannu e suspirannu li manu n’affirrammu e ni stringemmu… Lu vo’ sapiri quannu t’aju a lassari? Quannu la vita mia finisci e mori.
C:Anonimo
%%score ( 1 2 ) { ( 3 6 ) | ( 4 5 ) }
L:1/8
Q:3/8=66
M:6/8
K:Bb
V:1 treble nm="Voice"
V:2 treble 
V:3 treble nm="Piano"
V:6 treble 
V:4 bass 
V:5 bass 
V:1
 z6 | z6 | z6 |"^Canto" z6 | z2 z!p!"^con passione" z2 D |!<(! G2 A B2 c!<)! | d2 d (e2 d) | %7
w: ||||Mi|vô\- tue mi ri\-|vô\- tu su\- spi\-|
!<(! d!<)! A2-!>(! A3-!>)! |!>(! A3- A2 d!>)! | e2 d =f2 d | A2 A (B2 A/B/) || %11
w: rannu _ _|_ _ _|Pas\- su la not\-|ti~'n\- ter\- ra sen\- za|
!<(! A G2!>(! G3-!<)!!>)! |!>(! G3-!>)! !breath!G2 D |!<(! G2 A B2 c!<)! | d2 d (e e d) | %15
w: son\- nu _|_ _ E|li bid\- diz- zi|toi jeu cun- * tim\-|
!<(! d A2!<)!!>(! A3!>)! |!>(! G3-!>)! !breath!G2 D | e2 d f2 d | A2 A B2 A/B/ | %19
w: plan\- nu _|_ _ Mi|pas\- sa di la|not\- ti si\- ~na a|
 (A!<(! G2-) G3-!<)! |!>(! G3 G2!>)! d | (ed B) (G^F G) |!<(! A3- A2 ^c!<)! |!>(! (d2 e d=cA!>)! | %24
w: ghiornu _ _|_ _ Pri|tia * nun poz- * zu~u\-|n'u- * ra|ri\- pu\- sa- * *|
 G3- G2 G) | (B2"^cresc." G BA G |"^a..."!<(! D3- D2)"^poco..." ^c!<)! | %27
w: ri _ Pa\-|ci nun ha- * vi|cchiù _ st'af\-|
!>(! (d2"^a..." e d=c"^poco"A!>)! | G3) z2 z |!p!"^rimettendo" .d .d .d (e2 f) | (e3!<(! c3-)!<)! | %31
w: frit\- tu co- * *|ri:|Lu sa\- i quan\- nu|jeu _|
!>(! c2 c d2 e!>)! | (e d2-) (!fermata!d2 D) | G2 A B2 c | (^c3!<(! d3-!<)! | %35
w: _ t'ha\- ju~a las\-|sa\- ri? _ Quan\-|mu la vi\- ta|mi\- a|
!>(! d2 A{/=c} B2 A)!>)! | A G2- !breath!G2 D | G2 A B2 c | (^c3"^rall molto"!<(! d3-!<)! | %39
w: _ fi\- ni\- sci~e|mo\- ri _ Quan\-|nu la vi\- ta|mi\- a|
 d2 A!>(!{/!fermata!=c} !fermata!B2 A!>)! |{/A} G G) z z2 z | z6 | z6 | z6 | z6 | z6 |] %46
w: _ fi\- ni\- sci~e|mori! *||||||
V:2
 x6 | x6 | x6 | x6 | x6 | x6 | x6 | x6 | x6 | x6 | x6 || x6 | x6 | G2 A B B c | d3 e x d | x6 | %16
 x6 | e2 d =f x d | x6 | x6 | x6 | x6 | x6 | x6 | x6 | x6 | x6 | x6 | x6 | x6 | x6 | x6 | x6 | x6 | %34
 x6 | x6 | x6 | x6 | x6 | x6 | x6 | x6 | x6 | x6 | x6 | x6 |] %46
V:3
 z2 z!<(! (!>!g2 g/d/4G/4 | ^c3)!<)!!>(! (=c2- c/d/4c/4!>)! | B2) z!<(! (B2- B/G/4D/4!<)! | %3
 =E3)!>(! (^F2 d!>)! | [B,G]2) z z!pp! [DGB]2 |!<(! z [DGB]2 z [DGB]2!<)! | z [DGB]2 z [DGB]2 | %7
!<(! z [D^FA]2- [DFA]2!<)!!>(! (!>![ca]!>)! | [A^f]2 [^Fd] [DA]2) z | z [D^FA]2 z [DFA]2 | %10
 z [D^FA]2 z [DFA]2 ||!<(! z!<)! [DGB]2- [DGB]2!>(! (!>![ca]!>)! |!>(! [Gd]2 [DB] [B,G]2) z!>)! | %13
!p!!<(! z [DGB]2 z [DGB]2!<)! | z [DGB]2 z [DGB]2 |!<(! z [D^FA]2- [DFA]2!<)!!>(! (!>![ca]!>)! | %16
!>(! [G^f]2 [^Fd] [DG]2) z!>)! | z [D^FA]2 z [DFA]2 | z [D^FA]2 z [DFA]2 | %19
!<(! z [DGB]2- [DGB]2!<)!!>(! (!>![Bg]!>)! |!>(! [Gd]2 [DB] [B,G]2) z!>)! | z [DGB]2 z ^FG | %22
!<(! z D[^Fd]- [Fd]3-!<)! |!>(! [^Fd]6!>)! | z =E[B=e]- [Be]3 |"_cresc." z G!>![Bg]- [Bg]3 | %26
 z A!>![ca]- [ca]3 | z d!>![fd']- [fd']3 | z g!>![bg']- [bg']3 |!p! z [=F=Bd]2 z [=FBd]2 | %30
 z [Ece]2!<(! z [Ece]2 |!>(! z!<)! [EAc]2 z [EAc]2!>)! | %32
 z!<(! [DBd]2-!>(! [DBd] !fermata!z z!<)!!>)! | z [DGB]2 z [DGB]2 | z [DGB]2 z [DGB]2 | %35
 z [D^FA]2 z [DFA]2 | z [DGB]2 z!pp! [DGB]2 | z [DGB]2 z [DGB]2 | z [DGB]2 z [DGB]2 | %39
 z [D^FA]2 z [DFA]2 | z [DGB]2!p! (!>!g2-!<(! g/d/4G/4!<)! | ^c3)!>(! =c2- c/d/4c/4!>)! | %42
 B2 z!<(! B2- B/G/4D/4!<)! | =E3!>(! (^F2 d!>)! | [=B,G=B]6-)!pp! | [B,GB]3- [B,GB] z z |] %46
V:4
 (G,,!>!D,B,) (G,,D,B,) | (G,,!>!E,B,) (G,,E,B,) | (G,,D,B,) (G,,D,B,) | %3
"^rall." (G,,=E,A,) (G,,E,A,) | (G,,D,B,) (G,,D,B,) | (G,,D,B,) (G,,D,B,) | (G,,D,B,) (G,,D,B,) | %7
 (G,,D,C) (G,,D,C) | (G,,D,C) (G,,D,C) | (G,,D,C) (G,,D,C) | (G,,D,C) (G,,D,C) || %11
 (G,,D,B,) (G,,D,B,) | (G,,D,B,) (G,,D,B,) | (G,,D,B,) (G,,D,B,) | (G,,D,B,) (G,,D,B,) | %15
 (G,,D,C) (G,,D,C) | (G,,D,C) (G,,D,C) | (G,,D,C) (G,,D,C) | (G,,D,C) (G,,D,C) | %19
 (G,,D,B,) (G,,D,B,) | (G,,D,B,) (G,,D,B,) | (G,,D,B,) (G,,D,B,) | (G,,^F,C) (G,,D,A,) | %23
 (G,,D,C) (G,,D,C) | (G,,G,^C) (G,,G,C) | (G,,D,B,) (G,,D,B,) | (G,,^F,D) (G,,F,D) | %27
 (G,,^F,C) (G,,F,C) | (G,,D,B,) (G,,D,B,) |"^rimettendo" (G,,D,=B,) (G,,D,B,) | (B,,F,C) (B,,F,C) | %31
 (F,,C,A,) (F,,C,A,) | (B,,F,"^col canto"B,) G,, z !fermata!z | (F,,D,B,) (F,,D,B,) | %34
 (F,,D,B,) (F,,D,B,) | (F,,D,C) (F,,D,C) | (F,,D,B,) (F,,D,B,) | (G,,D,B,) (G,,D,B,) | %38
 (G,,D,B,)"^rall. col canto" (G,,D,B,) | (G,,D,C) (G,,D,C) |"^a tempo" (G,,D,B,) (G,,D,B,) | %41
 (G,,E,B,) (G,,D,B,) | (G,,D,B,) (G,,D,B,) |"^rall.                morendo" (G,,=E,A,) (G,,D,A,) | %44
 (G,,D,G,) (G,,D,G,) | G,,3- G,, z z |] %46
V:5
 x D,2 x D,2 | x E,2 x E,2 | x D,2 x D,2 | x =E,2 x E,2 | x D,2 x D,2 | x D,2 x D,2 | x D,2 x D,2 | %7
 x D,2 x D,2 | x D,2 x D,2 | x D,2 x D,2 | x D,2 x D,2 || x D,2 x D,2 | x D,2 x D,2 | x D,2 x D,2 | %14
 x D,2 x D,2 | x D,2 x D,2 | x D,2 x D,2 | x D,2 x D,2 | x D,2 x D,2 | x D,2 x D,2 | x D,2 x D,2 | %21
 x D,2 x D,2 | x ^F,2 x D,2 | x D,2 x D,2 | x G,2 x G,2 | x D,2 x D,2 | x ^F,2 x F,2 | %27
 x ^F,2 x F,2 | x D,2 x D,2 | x D,2 x D,2 | x F,2 x F,2 | x C,2 x C,2 | x F,2 x3 | x D,2 x D,2 | %34
 x D,2 x D,2 | x D,2 x D,2 | x D,2 x D,2 | x D,2 x D,2 | x D,2 x D,2 | x D,2 x D,2 | x D,2 z D,2 | %41
 x E,2 x D,2 | x D,2 x D,2 | x =E,2 x D,2 | x D,2 x D,2 | x6 |] %46
V:6
 x6 | G3 ^F3 | G2 x4 | ^C3 =C3 | x6 | x6 | x6 | x6 | x6 | x6 | x6 || x6 | x6 | x6 | x6 | x6 | x6 | %17
 x6 | x6 | x6 | x6 | x4 D2 | x D2- D3- | D6 | x =E2- E3 | x G2- G3 | x A2- A3 | x d2- d3 | %28
 x g2- g3 | x6 | x6 | x6 | x6 | x6 | x6 | x6 | x6 | x6 | x6 | x6 | x6 | G3 ^F3 | G2 x4 | ^C3 =C3 | %44
 x6 | x6 |] %46

